X:39
T:John Anderson, my Jo (Skene MS)
S:see I am the Duke of Norfolk, to Sound a Charge
B:Skene MS
Q:1/4=120
L:1/4
M:C
F:http://users.erols.com/olsonw/BM2.ABC
K:Am
B|AGAB|c3d|BGGG|G3B|\
AGAB|c3c|cBcd|e4|\
eged|cde2|d3/2e/2dc|B2cd|\
edcB|AB^cd|eAAA|A3|]
